resources/icons/folder_gradle_dark.svg

<?xml version="1.0" encoding="UTF-8" standalone="no"?>
<svg
   xmlns:dc="http://purl.org/dc/elements/1.1/"
   xmlns:cc="http://creativecommons.org/ns#"
   xmlns:rdf="http://www.w3.org/1999/02/22-rdf-syntax-ns#"
   xmlns:svg="http://www.w3.org/2000/svg"
   xmlns="http://www.w3.org/2000/svg"
   xmlns:sodipodi="http://sodipodi.sourceforge.net/DTD/sodipodi-0.dtd"
   xmlns:inkscape="http://www.inkscape.org/namespaces/inkscape"
   width="16"
   height="16"
   viewBox="0 0 16 16"
   version="1.1"
   id="svg4"
   sodipodi:docname="folder_gradle_dark.svg"
   inkscape:version="0.92.4 (5da689c313, 2019-01-14)">
  <metadata
     id="metadata10">
    <rdf:RDF>
      <cc:Work
         rdf:about="">
        <dc:format>image/svg+xml</dc:format>
        <dc:type
           rdf:resource="http://purl.org/dc/dcmitype/StillImage" />
      </cc:Work>
    </rdf:RDF>
  </metadata>
  <defs
     id="defs8" />
  <sodipodi:namedview
     pagecolor="#ffffff"
     bordercolor="#666666"
     borderopacity="1"
     objecttolerance="10"
     gridtolerance="10"
     guidetolerance="10"
     inkscape:pageopacity="0"
     inkscape:pageshadow="2"
     inkscape:window-width="1196"
     inkscape:window-height="795"
     id="namedview6"
     showgrid="false"
     inkscape:zoom="14.75"
     inkscape:cx="2.9830508"
     inkscape:cy="8"
     inkscape:window-x="188"
     inkscape:window-y="99"
     inkscape:window-maximized="0"
     inkscape:current-layer="svg4" />
  <path
     fill="#AFB1B3"
     d="M15.411782,3.26915988 C14.8856586,2.30291422 13.9453191,2.01413641 13.2809887,2.00044611 C12.4659087,1.98365356 11.7964871,2.44470668 11.9230952,2.74737711 C11.9502713,2.81235548 12.1030777,3.15154464 12.196879,3.29154994 C12.3326583,3.49413951 12.5757257,3.33848814 12.6608617,3.29225806 C12.9150895,3.15424223 13.1867828,3.10956328 13.4949582,3.1462506 C13.7895455,3.18131937 14.1809013,3.36677919 14.4434573,3.88205401 C15.0613253,5.09475891 13.153976,7.59064349 10.7664935,5.86225912 C8.37897727,4.13387474 6.05724334,4.70657467 5.00607535,5.05493565 C3.95494106,5.4032292 3.47177332,5.75351221 3.88713574,6.56356698 C4.45159568,7.66438904 4.26449884,7.32661614 4.81183043,8.23786454 C5.68119521,9.68515927 7.58416127,7.57182773 7.58416127,7.57182773 C6.16655453,9.70626797 4.95135228,9.19055476 4.48524548,8.44439933 C4.06519636,7.77188831 3.73881369,6.99656509 3.73881369,6.99656509 C0.148334564,8.28999559 1.11976134,14 1.11976134,14 L2.90282898,14 C3.35743823,11.89756 4.98281046,11.9750823 5.2613821,14 L6.62193929,14 C7.82520568,9.89459397 10.8749281,14 10.8749281,14 L12.6484874,14 C12.1517654,11.1994893 13.6461462,10.3196342 14.5879018,8.67807869 C15.5297586,7.03638836 16.4219162,5.02806084 15.411782,3.26915988 L15.411782,3.26915988 Z"
     id="path2" />
  <path
     style="fill:#999999;fill-opacity:1;stroke-width:0.06779661"
     d="M 1.0879988,13.583051 C 1.064485,13.387288 1.0451611,12.830508 1.0450568,12.345763 1.044507,9.7906556 1.8219482,8.0057911 3.2700649,7.2375458 3.505259,7.1127722 3.707291,7.0212468 3.719025,7.0341559 3.7307591,7.0470651 3.8958117,7.3686007 4.0858086,7.7486795 4.5001835,8.5776144 4.7471209,8.8750895 5.1479147,9.0281539 5.8278236,9.2878136 6.6809685,8.861341 7.349079,7.9278296 L 7.5837054,7.6 7.2910704,7.8372881 C 6.5368257,8.4488804 6.036536,8.7169262 5.6473141,8.7179818 5.1556985,8.7193153 4.846227,8.3624481 4.1336378,6.9724864 3.7066967,6.1397042 3.682151,5.9599367 3.9532271,5.6511981 4.3538709,5.19489 5.6541271,4.7935426 6.9129302,4.7376327 c 1.3942257,-0.061925 2.4169308,0.2297918 3.7091208,1.05799 0.853154,0.5468089 1.396351,0.7293308 1.969916,0.6619196 0.977166,-0.1148467 1.781951,-0.8508604 1.956469,-1.789282 0.07277,-0.3912942 0.06714,-0.4318016 -0.110354,-0.7945916 -0.335451,-0.6856385 -0.898148,-0.9069003 -1.64693,-0.6475999 -0.232325,0.080453 -0.453947,0.1267861 -0.492494,0.1029625 -0.106059,-0.065548 -0.339336,-0.5525528 -0.339336,-0.7084193 0,-0.1934999 0.433833,-0.4609828 0.89928,-0.554458 0.748946,-0.1504097 1.604399,0.139418 2.15605,0.7304695 0.712722,0.7636278 0.96133,1.8685994 0.702427,3.1220278 -0.191863,0.9288711 -0.796957,2.250659 -1.488253,3.2509928 -1.031204,1.4921959 -1.262404,1.8641069 -1.421365,2.2864279 -0.23251,0.617723 -0.321675,1.309949 -0.252225,1.958144 l 0.05622,0.524767 -0.851494,-2.71e-4 -0.851492,-2.71e-4 -0.683373,-0.668746 C 9.3540746,12.417311 8.8470536,12.147072 8.1965505,12.188493 7.5398361,12.23031 7.1403222,12.600606 6.7712423,13.509565 l -0.1605807,0.39552 -0.6816019,0.01932 c -0.6258249,0.01774 -0.6816021,0.009 -0.6816021,-0.106566 0,-0.28819 -0.2387615,-0.794747 -0.5061136,-1.073771 -0.2592155,-0.270532 -0.3131434,-0.29661 -0.6133725,-0.29661 -0.3040386,0 -0.3529232,0.02464 -0.640292,0.322783 -0.265461,0.275411 -0.4252559,0.572654 -0.5827465,1.083996 -0.019116,0.06207 -0.2600276,0.08475 -0.9001414,0.08475 H 1.1307513 Z"
     id="path12"
     inkscape:connector-curvature="0" />
  <path
     style="fill:#939dac;fill-opacity:1;stroke-width:0.06779661"
     d="M 1.1007406,13.610877 C 1.0330693,13.117161 1.0505744,11.714905 1.1327834,11.044068 1.2937765,9.7303403 1.7537651,8.617854 2.4249985,7.9188341 2.7691138,7.5604737 3.4889976,7.077275 3.6772866,7.0782761 3.7093553,7.0784456 3.8861073,7.3743865 4.070069,7.7359203 4.5881839,8.7541542 4.9821148,9.1127485 5.5808733,9.111202 6.1192397,9.1098122 6.8618584,8.6127121 7.3583194,7.9214026 L 7.5886268,7.6007051 7.0858388,7.984896 C 5.8827122,8.9042305 5.3553729,8.9333403 4.7978834,8.1111944 4.4643321,7.6192967 3.8490441,6.4118369 3.8008145,6.1545164 3.7172935,5.7089047 4.2003124,5.3367736 5.2964036,5.0022734 5.8623653,4.8295558 5.9931117,4.8161771 7.159322,4.8116492 c 1.1522705,-0.00447 1.2928197,0.00831 1.7288136,0.1572036 0.5769586,0.1970378 1.1685754,0.4885452 1.9286954,0.9503248 0.639665,0.388603 1.095496,0.548619 1.56283,0.548619 1.016671,0 1.95901,-0.7827239 2.170848,-1.8031465 0.06642,-0.3199466 0.05861,-0.3983799 -0.06818,-0.6850201 -0.336435,-0.7605666 -0.813688,-0.9822358 -1.653545,-0.7680192 -0.265661,0.067761 -0.506339,0.1091035 -0.534838,0.091873 -0.07796,-0.047136 -0.321065,-0.5449547 -0.321065,-0.6574683 0,-0.1444307 0.37294,-0.433627 0.663122,-0.5142187 0.413293,-0.1147826 1.05723,-0.084726 1.466649,0.068457 0.41118,0.1538421 0.982913,0.6279739 1.230848,1.0207292 0.495818,0.7854257 0.599214,1.9628609 0.270234,3.0773215 -0.281882,0.9549094 -0.851765,2.0592342 -1.770645,3.4311729 -0.464768,0.6939246 -0.920305,1.4469266 -1.012305,1.6733386 -0.229332,0.56439 -0.330848,1.286527 -0.275995,1.963285 l 0.04533,0.559322 H 11.75353 10.916937 L 10.580502,13.581885 C 10.110328,13.101782 9.4168129,12.545726 9.0699397,12.370727 8.4002346,12.032858 7.7021831,12.14026 7.2675374,12.648045 7.1398254,12.797248 6.9335701,13.145662 6.8091923,13.4223 l -0.2261415,0.502976 -0.6610169,6.8e-5 c -0.5832376,6.5e-5 -0.6613671,-0.01389 -0.6639927,-0.11857 -0.0051,-0.203402 -0.1787175,-0.622421 -0.3756186,-0.90655 -0.2250021,-0.324671 -0.4731588,-0.466326 -0.8169431,-0.466326 -0.213953,0 -0.3021826,0.0509 -0.5702088,0.328976 -0.1796361,0.186369 -0.3703215,0.47291 -0.4398887,0.661017 -0.1908065,0.515932 -0.159753,0.501533 -1.0815868,0.501533 H 1.1438541 Z"
     id="path3719"
     inkscape:connector-curvature="0" />
  <path
     style="fill:#87939a;fill-opacity:1;stroke-width:0.06779661"
     d="M 1.0877718,13.61894 C 1.0091481,13.094639 1.1022344,10.891433 1.2266378,10.332203 1.4493051,9.3312475 1.8988026,8.429153 2.4568266,7.8633431 2.7638462,7.5520397 3.4720041,7.0775342 3.6274601,7.0789529 c 0.06744,6.17e-4 0.2357013,0.2454757 0.4471162,0.6506594 0.1864406,0.3573198 0.4384587,0.7663402 0.56004,0.9089342 C 4.9200809,8.9733478 5.352905,9.143981 5.7613296,9.0827336 6.1548554,9.0237207 6.7796102,8.6174267 7.1313478,8.1917755 7.563729,7.6685342 7.5514124,7.6436188 7.0504928,8.0282125 5.9332872,8.8859756 5.3261782,8.9132949 4.7872955,8.1300561 4.4343128,7.6170132 3.7694915,6.2639003 3.7694915,6.0585163 c 0,-0.5864183 1.2662916,-1.1598296 2.8252745,-1.2793612 1.6188808,-0.1241241 2.548695,0.1131131 4.081079,1.0412654 0.837018,0.5069747 1.360111,0.6808278 1.885375,0.6266158 1.061732,-0.1095804 1.987933,-1.0475423 1.987933,-2.0131762 0,-0.3053853 -0.03974,-0.4428655 -0.201988,-0.6986969 C 14.236071,3.5599871 14.045393,3.3558231 13.923436,3.2814654 13.654645,3.1175833 13.16503,3.1043653 12.69092,3.2481915 c -0.183045,0.055529 -0.355747,0.100961 -0.383782,0.100961 -0.02804,0 -0.11782,-0.138085 -0.199521,-0.3068557 -0.210036,-0.4338774 -0.150824,-0.5912829 0.306616,-0.8150872 0.338935,-0.1658257 0.428248,-0.1800839 0.966055,-0.1542236 0.485475,0.023344 0.653869,0.062187 0.931576,0.2148829 1.005863,0.5530682 1.488228,1.4381675 1.48361,2.7223006 -0.0049,1.3594169 -0.501559,2.5505828 -1.993622,4.7813071 -1.111243,1.6613724 -1.253053,2.0384494 -1.242349,3.3034384 l 0.007,0.830509 h -0.829169 -0.82917 L 10.406638,13.43881 C 9.1573925,12.226776 8.3278746,11.916251 7.5777685,12.379841 7.3187631,12.539916 6.908342,13.133058 6.7257385,13.611198 l -0.120004,0.314226 H 5.9444911 5.2832476 L 5.1739003,13.532123 C 5.0333464,13.026578 4.6117991,12.525951 4.2731738,12.462424 3.8004791,12.373746 3.486103,12.622874 3.0932003,13.397496 l -0.2505813,0.494029 -0.8541448,0.01894 -0.8541447,0.01894 z"
     id="path3732"
     inkscape:connector-curvature="0" />
</svg>

<svg xmlns="http://www.w3.org/2000/svg" width="16" height="16" viewBox="0 0 16 16"><path fill="#AFB1B3" d="M15.412 3.27c-.526-.967-1.467-1.256-2.131-1.27-.815-.016-1.485.445-1.358.747.027.065.18.405.274.545.136.202.379.046.464 0 .254-.138.526-.182.834-.146.295.035.686.22.948.736.618 1.213-1.289 3.709-3.677 1.98-2.387-1.728-4.709-1.155-5.76-.807-1.051.348-1.534.699-1.119 1.509.565 1.1.377.763.925 1.674.87 1.447 2.772-.666 2.772-.666-1.417 2.134-2.633 1.619-3.099.872-.42-.672-.746-1.447-.746-1.447C.149 8.29 1.119 14 1.119 14h1.784c.454-2.102 2.08-2.025 2.358 0h1.36c1.204-4.105 4.254 0 4.254 0h1.773c-.496-2.8.998-3.68 1.94-5.322s1.834-3.65.824-5.409z"/><path d="M1.088 13.583a14.83 14.83 0 01-.043-1.237c0-2.555.777-4.34 2.225-5.108.235-.125.437-.217.449-.204.012.013.177.335.367.715.414.829.661 1.126 1.062 1.28.68.259 1.533-.168 2.201-1.101l.235-.328-.293.237c-.754.612-1.254.88-1.644.881-.491.001-.8-.356-1.513-1.746-.427-.832-.452-1.012-.18-1.32.4-.457 1.7-.858 2.959-.914 1.394-.062 2.417.23 3.71 1.058.852.546 1.395.729 1.969.662.977-.115 1.782-.851 1.956-1.79.073-.391.068-.432-.11-.794-.335-.686-.898-.907-1.647-.648-.232.08-.454.127-.492.103-.106-.066-.34-.553-.34-.708 0-.194.434-.461.9-.555.749-.15 1.604.14 2.156.73.712.764.961 1.87.702 3.123-.192.929-.797 2.25-1.488 3.25-1.031 1.493-1.263 1.865-1.422 2.287a4.34 4.34 0 00-.252 1.958l.056.525h-1.703l-.683-.67c-.87-.852-1.378-1.122-2.028-1.08-.657.041-1.057.412-1.426 1.32l-.16.396-.682.02c-.626.017-.682.008-.682-.107 0-.288-.238-.795-.506-1.074-.259-.27-.313-.297-.613-.297-.304 0-.353.025-.64.323-.266.276-.426.573-.583 1.084-.02.062-.26.085-.9.085H1.13z" fill="#999" stroke-width=".068"/><path d="M1.1 13.61c-.067-.493-.05-1.895.033-2.566.16-1.314.62-2.426 1.292-3.125.344-.359 1.064-.842 1.252-.84.032 0 .21.295.393.657.518 1.018.912 1.377 1.51 1.375.54-.001 1.282-.498 1.778-1.19l.23-.32-.502.384c-1.203.92-1.73.948-2.288.126-.334-.492-.949-1.7-.997-1.956-.084-.446.4-.818 1.495-1.153.566-.172.697-.186 1.863-.19 1.153-.005 1.293.008 1.73.157.576.197 1.168.488 1.928.95.64.389 1.095.549 1.563.549 1.016 0 1.959-.783 2.17-1.803.067-.32.06-.399-.068-.685-.336-.76-.813-.983-1.653-.768-.266.067-.507.109-.535.091-.078-.047-.321-.544-.321-.657 0-.144.373-.434.663-.514.413-.115 1.057-.085 1.467.068.41.154.983.628 1.23 1.021.496.785.6 1.963.27 3.077-.281.955-.851 2.06-1.77 3.431-.465.694-.92 1.447-1.012 1.674-.23.564-.331 1.286-.276 1.963l.045.56h-1.673l-.336-.344c-.47-.48-1.164-1.036-1.511-1.211-.67-.338-1.368-.23-1.802.277-.128.15-.334.498-.459.774l-.226.503h-.661c-.583 0-.661-.014-.664-.118-.005-.204-.179-.623-.376-.907-.225-.324-.473-.466-.817-.466-.213 0-.302.05-.57.329a2.28 2.28 0 00-.44.66c-.19.517-.16.502-1.081.502h-.83z" fill="#939dac" stroke-width=".068"/><path d="M1.088 13.619c-.079-.524.014-2.728.139-3.287.222-1 .672-1.903 1.23-2.469.307-.311 1.015-.785 1.17-.784.068 0 .236.245.448.65.186.358.438.767.56.91a1.26 1.26 0 001.126.444c.394-.06 1.019-.466 1.37-.891.433-.523.42-.548-.08-.164-1.118.858-1.725.885-2.264.102-.353-.513-1.017-1.866-1.017-2.07 0-.587 1.267-1.16 2.826-1.28 1.619-.124 2.548.113 4.08 1.041.838.507 1.361.681 1.886.627 1.062-.11 1.988-1.048 1.988-2.013 0-.306-.04-.443-.202-.699-.11-.175-.302-.38-.424-.454-.268-.163-.758-.177-1.232-.033a3.33 3.33 0 01-.384.101c-.028 0-.118-.138-.2-.307-.21-.434-.15-.591.307-.815.34-.166.428-.18.966-.154.486.023.654.062.932.215 1.006.553 1.488 1.438 1.483 2.722-.004 1.36-.501 2.55-1.993 4.781-1.111 1.662-1.253 2.039-1.242 3.304l.007.83h-1.66l-.501-.486c-1.25-1.212-2.08-1.523-2.83-1.06-.258.16-.669.754-.851 1.232l-.12.314H5.284l-.11-.393c-.14-.505-.562-1.006-.9-1.07-.474-.088-.788.16-1.18.935l-.251.495-.855.018-.854.02z" fill="#87939a" stroke-width=".068"/></svg>
